packages/kaspersky-hexa-ui-icons/src/iconsSVGs/16/Splitscreen.svg

<svg width="16" height="16" viewBox="0 0 16 16" fill="none" xmlns="http://www.w3.org/2000/svg">
<path fill-rule="evenodd" clip-rule="evenodd" d="M1.34229 4.66675C1.34229 3.56218 2.23772 2.66675 3.34229 2.66675H12.6756C13.7802 2.66675 14.6756 3.56218 14.6756 4.66675V11.3334C14.6756 12.438 13.7802 13.3334 12.6756 13.3334H3.34228C2.23771 13.3334 1.34229 12.438 1.34229 11.3334V4.66675ZM10.6499 3.96675H12.6756C13.0622 3.96675 13.3756 4.28015 13.3756 4.66675V11.3334C13.3756 11.72 13.0622 12.0334 12.6756 12.0334H10.6499V3.96675ZM9.34992 3.96675H3.34229C2.95569 3.96675 2.64229 4.28015 2.64229 4.66675V11.3334C2.64229 11.72 2.95569 12.0334 3.34228 12.0334H9.34992V3.96675Z" fill="black"/>
</svg>

<svg xmlns="http://www.w3.org/2000/svg" width="16" height="16" fill="none" viewBox="0 0 16 16"><path fill="#000" fill-rule="evenodd" d="M1.3424 4.6666c0-1.1045.8954-2 2-2h9.3333c1.1046 0 2 .8955 2 2v6.6667c0 1.1046-.8954 2-2 2H3.3424c-1.1046 0-2-.8954-2-2zm9.3076-.7h2.0257a.7.7 0 0 1 .7.7v6.6667a.7.7 0 0 1-.7.7H10.65zm-1.3 0H3.3424a.7.7 0 0 0-.7.7v6.6667a.7.7 0 0 0 .7.7H9.35z"/></svg>
